svgs/thin/peseta-sign.svg

<svg xmlns="http://www.w3.org/2000/svg" viewBox="0 0 384 512"><!-- Font Awesome Pro 6.0.0-alpha2 by @fontawesome - https://fontawesome.com License - https://fontawesome.com/license (Commercial License) --><path d="M376 184H336C336 100.188 267.812 32 184 32H88C65.938 32 48 49.938 48 72V184H8C3.578 184 0 187.594 0 192S3.578 200 8 200H48V472C48 476.406 51.578 480 56 480S64 476.406 64 472V336H184C262.334 336 326.262 276.215 334.383 200H376C380.422 200 384 196.406 384 192S380.422 184 376 184ZM64 72C64 58.781 74.766 48 88 48H184C258.984 48 320 109 320 184H64V72ZM184 320H64V200H318.383C310.354 267.395 253.506 320 184 320Z"/></svg>

<svg xmlns="http://www.w3.org/2000/svg" viewBox="0 0 384 512"><!--! Font Awesome Pro 6.0.0-alpha3 by @fontawesome - https://fontawesome.com License - https://fontawesome.com/license (Commercial License) --><path d="M376 184H336C336 100.2 267.8 32 184 32h-96C65.94 32 48 49.94 48 72v112H8C3.578 184 0 187.6 0 192s3.578 8 8 8H48v272C48 476.4 51.58 480 56 480S64 476.4 64 472V336h120c78.33 0 142.3-59.79 150.4-136H376C380.4 200 384 196.4 384 192S380.4 184 376 184zM64 72C64 58.78 74.77 48 88 48h96C258.1 48 320 109 320 184H64V72zM184 320H64.13L64 200h254.4C310.4 267.4 253.5 320 184 320z"/></svg>
